X: 114
T: the Wind that Shakes the Barley
R: reel
Z: 2012 John Chambers <jc@trillian.mit.edu>
B: "100 Essential Irish Session Tunes" 1995 Dave Mallinson, ed.
M: 4/4
L: 1/8
K: D
|: "D"A2AB AFED | "G"B2BA BcdB |\
[1 "D"A2AB AFED | "Em"gfed "G"BcdB :|\
[2 "D"FAAB AFED | "Em"gfed "G"Bcde |]
|: "D"f2fd "Em"g2ge | "D"f2fd "G"Bcde |\
[1 "D"f2fd "Em"g2fg | "D"afed "G"Bcde :|\
[2 "Bm"defg afbf | "Em"gfed "G"BcdB |]

%%sep 2 1 500
%%sep 1 1 500

